X: 30193
T: LIBERTY MARCH
C:
%R: march, reel
N: This is version 1, for ABC software that doesn't understand voice overlays.
B: Elias Howe "The Musician's Companion" Part 3 1844 p.19 #3
S: http://imslp.org/wiki/The_Musician's_Companion_(Howe,_Elias)
S: https://archive.org/stream/firstthirdpartof03howe/#page/66/mode/1up
Z: 2016 John Chambers <jc:trillian.mit.edu>
M: C
L: 1/16
K: F
% - - - - - - - - - - - - - - - - - - - - - - - - -
c2de |\
f8 c6B2 | A3Fc3A F4C3C | F8 ([EG][AF][EG][AF] GAGA) | B2G2F2E2 F4 C3C |\
A8 (GAGA BcBc) | d2B2A2G2 A4 FGAB | c4 A3F ([B4C4-][A4C4]) | G4G3G G4 :|
|: (3(A2=B2c2) |\
C6E2 G6B2 | A3Fc3A f3cA3F | C6E2 G6B2 | A4F3F F2G2A2B2 |\
c8 (dfef gfef) | c4(cdcB) A4C3C | A4F3A G3FG3A | F4F3F F4 :|
% - - - - - - - - - - - - - - - - - - - - - - - - -
